X:111
T:Vårbäcken
R:vals
Z:Nedtecknad efter [[!Kalle Almlöf]] våren 2002 av Åsa Enefalk
Z:Till abc 2007-09-14 av Erik Ronström
O:Dalarna
M:3/4
L:1/8
K:D
A|f3 e ce|d6|A3 B AF|D4 F2|G3 A GE|C4 A,2|(CD E)F GB|A4 A2|
f3 e ce|d6|A3 B AF|D4 F2|G3 A GE|C2 A,C EC|((3DED CD) FA|d4- d:|
|:F|G2 (GF) GA|B3 A G2|F2 (FE) FG|A3 G F2|E2 (ED) EF|G2 (GE) CA,|(CD E)F GB|A4 F2|
G2 (GF) GA|B3 A G2|F2 (FE) FG|A3 G F2|E2 (ED) EF|G2 (GE) CE|((3DED CD) FA|d4- d:|
(:musicend:)

(:music:)

